X: 296
T: All alive
C: anon.
O: Ireland
B: Francis O'Neill: "The Dance Music of Ireland" (1907) no. 295
R: Double jig
Z: Transcribed by Frank Nordberg - http://www.musicaviva.com
F: http://www.musicaviva.com/abc/tunes/ireland/oneill-1001/oneill-1001-029
5.abc
M: 6/8
L: 1/8
K: Gm
(G/A/)|BdB cAc|(B<G)G G2A|BdB caB|(A<F)F F2A|B>AB cBc|d2g gfe|d>cB (A/B/c
)A|BGG G2:|
|:A|Bdg fdB|fdB fdB|Acf cAF|cAF cAF|Bdg fdB|bag fdB|(c/d/e)c (A/B/c)A|BGG
 G2:|
W:
W:
W: From Musica Viva - http://www.musicaviva.com
W: the Internet center for free sheet music downloads.


